resources/haticons/SVG/wb_iridescent.svg

<!-- Generated by IcoMoon.io -->
<svg version="1.1" xmlns="http://www.w3.org/2000/svg" width="24" height="24" viewBox="0 0 24 24">
<title>wb_iridescent</title>
<path d="M4.969 19.969l-1.406-1.453 1.781-1.781 1.406 1.406zM3.563 4.453l1.406-1.406 1.781 1.781-1.406 1.406zM20.438 18.563l-1.406 1.406-1.781-1.828 1.406-1.406zM12.984 22.453h-1.969v-2.953h1.969v2.953zM19.031 3.047l1.406 1.406-1.781 1.781-1.406-1.406zM11.016 0.563h1.969v2.953h-1.969v-2.953zM5.016 14.484v-6h13.969v6h-13.969z"></path>
</svg>

<svg xmlns="http://www.w3.org/2000/svg" width="24" height="24"><path d="M4.969 19.969l-1.406-1.453 1.781-1.781 1.406 1.406zM3.563 4.453l1.406-1.406L6.75 4.828 5.344 6.234zm16.875 14.11l-1.406 1.406-1.781-1.828 1.406-1.406zm-7.454 3.89h-1.969V19.5h1.969v2.953zm6.047-19.406l1.406 1.406-1.781 1.781-1.406-1.406zM11.016.563h1.969v2.953h-1.969V.563zm-6 13.921v-6h13.969v6H5.016z"/></svg>
